src/assets/icons/waterFootprint.svg

<svg width="61" height="70" viewBox="0 0 61 70" fill="none" xmlns="http://www.w3.org/2000/svg">
<g clip-path="url(#clip0_1241_1458)">
<path d="M30.5203 0.198598C29.6145 0.49958 28.77 1.30676 28.0024 2.62013C26.3136 5.5205 24.2256 8.42087 21.4161 11.759C19.6505 13.8522 18.6526 14.933 14.7376 18.9279C9.30274 24.496 7.92099 26.0009 5.81766 28.7098C4.14421 30.8577 3.60686 31.6785 2.54752 33.6486C1.44212 35.7007 2.17852 37.9169 2.17852 37.9169C1.63379 41.8058 17.4285 63.1947 3.26779 51.528C4.35711 55.903 4.3745 57.9597 8.91892 62.0093C16.5032 68.7677 27.4037 71.4902 37.7975 69.2055C40.6838 68.5761 43.5394 67.5364 46.1341 66.1546C53.0428 62.4881 58.1246 56.4138 60.1051 49.5049C60.8727 46.7823 61.0723 45.1269 60.9802 42.1855C60.8881 39.5451 60.6424 37.9581 59.9515 35.5503C57.0959 25.5905 54.3628 17.0345 45.7499 9.23633C41.9578 5.81608 32.7925 -0.553856 30.5203 0.198598Z" fill="black" fill-opacity="0.65"/>
<g clip-path="url(#clip1_1241_1458)">
<path d="M43.8116 75.9526C49.4757 75.3471 54.8584 73.9968 58.7086 72.2145C60.904 71.1961 63.7608 69.4008 63.6061 69.1433C63.4352 68.9015 61.1117 65.6523 61.0438 65.577C61.0101 65.5469 60.1926 66.0053 59.2293 66.6039C54.3622 69.5521 48.7185 71.0754 40.7184 71.5845C30.685 72.2215 21.8943 70.6785 15.8911 67.2038C15.0863 66.7436 14.3839 66.4194 14.3194 66.497C14.0608 66.7771 11.9165 70.0902 11.9192 70.2126C11.9233 70.3961 15.1417 72.2062 16.5293 72.8244C20.2735 74.4568 25.6468 75.6624 31.3179 76.1128C33.9211 76.3115 41.3017 76.2266 43.8116 75.9526Z" fill="white"/>
<path d="M42.4794 67.4212C47.7133 66.8234 52.4024 65.5465 56.7101 63.4959C63.0329 60.5067 68.0494 56.0866 71.6939 50.2677C72.1574 49.5248 72.5068 48.8606 72.4717 48.7694C72.4014 48.587 68.514 46.4674 68.2489 46.4568C68.1496 46.4585 67.7655 47.0469 67.3844 47.7729C65.5406 51.2032 62.0776 54.7692 58.0965 57.365C52.3854 61.0627 45.7395 62.9252 37.6981 63.0677C32.0889 63.1671 27.8209 62.5388 23.2163 60.9217C16.7433 58.6489 11.1702 54.4166 6.884 48.5087C6.50807 47.9797 6.13452 47.5578 6.05179 47.5593C5.88633 47.5622 2.57034 49.5493 2.21313 49.8617C2.01832 50.0335 2.1227 50.2612 2.89111 51.3189C5.11156 54.4016 8.61662 57.936 11.594 60.0717C17.1954 64.0892 23.3882 66.4128 31.0574 67.3941C33.0825 67.649 40.2504 67.6749 42.4794 67.4212Z" fill="white"/>
<path d="M42.3363 58.7616C52.7446 57.1232 61.301 51.11 65.8219 42.2759C68.1531 37.6892 68.917 32.5947 68.228 26.1791C67.6459 20.8483 65.7336 13.0158 65.0596 13.2267C64.9445 13.2594 63.9396 13.4761 62.803 13.7258C61.6661 13.9602 60.6616 14.1923 60.563 14.2247C60.4313 14.2576 60.5418 14.7607 60.8955 15.7798C61.5148 17.5747 62.3522 20.988 62.8075 23.597C63.2834 26.3892 63.4359 33.2428 63.0628 35.0706C61.3576 43.2427 54.7444 50.2927 46.1335 53.1083C42.9618 54.1439 41.675 54.3351 37.4723 54.4096C34.1465 54.4685 33.4674 54.45 32.0045 54.1698C29.4945 53.694 27.8948 53.2173 25.5045 52.1731C22.5797 50.9087 20.5645 49.613 17.9467 47.2719C14.2148 43.9559 11.6505 40.2977 10.4768 36.6455C10.1571 35.6717 10.0932 35.0301 10.0287 32.8733C9.95526 30.3188 9.97011 30.242 10.4524 28.8561C11.9003 24.7442 14.3958 23.0777 18.2812 23.621C19.7755 23.8241 21.262 24.4252 22.0898 25.1758C23.0189 26.0163 23.9202 27.8369 24.775 30.5459C25.8096 33.8944 26.1423 34.715 27.0202 36.2298C28.4487 38.6838 30.7354 40.2808 33.6953 40.8864C35.4746 41.2528 38.9155 41.1612 40.7922 40.6994C46.5045 39.282 49.3743 35.099 49.2252 28.3984C49.1381 24.482 48.4305 21.6939 46.7926 18.7539C42.5689 11.192 35.4736 5.50218 27.7816 3.49594C25.9168 3.00866 23.9562 2.67611 23.8104 2.81643C23.6969 2.92557 22.591 6.78653 22.5965 7.0313C22.5978 7.09249 23.097 7.20608 23.7116 7.30231C26.7176 7.75407 30.4742 9.20259 33.0105 10.8564C36.8237 13.3599 40.5568 17.4718 42.7004 21.5659C43.8925 23.8098 44.5551 28.2975 44.1021 30.9991C43.5918 34.0996 42.0884 35.7179 39.1561 36.3514C36.2896 36.9685 33.4135 36.4073 32.1406 34.9912C31.3935 34.1475 30.8536 32.948 29.8944 30.0113C28.2774 25.0355 27.5529 23.7168 25.4927 21.8863C23.2302 19.8909 20.4783 18.9602 16.8209 18.9944C14.6696 19.0173 13.6813 19.2337 11.8134 20.0933C10.7157 20.6025 10.1616 20.9949 9.10789 21.993C6.22292 24.753 4.86272 28.343 4.9645 32.9172C5.04177 36.3898 5.76115 38.9635 7.57237 42.2524C9.26334 45.3445 11.3726 47.8935 14.4463 50.6397C19.4785 55.1112 25.1483 57.7348 32.1083 58.8358C34.0352 59.1383 40.2248 59.0898 42.3363 58.7616Z" fill="white"/>
<path d="M39.862 50.2197C50.5321 49.1889 57.3382 42.6251 58.7576 32.0248C59.0105 30.0001 58.8616 26.2839 58.3986 24.073C56.802 16.2961 52.8087 9.4188 46.8319 4.15297L45.2787 2.78782L44.727 3.28733C44.4188 3.56827 43.6743 4.33137 43.0602 5.00034L41.9444 6.18324L43.3463 7.44394C48.6659 12.1858 51.9721 17.9428 53.4552 25.0788C54.3261 29.2568 53.7836 33.8882 51.978 37.5473C49.6664 42.2714 45.9639 44.7398 39.9247 45.5967C35.1558 46.2628 30.3646 45.1846 27.0488 42.7182C23.3963 39.9976 20.4957 34.616 19.8502 29.4087C19.7866 28.7824 19.6916 28.2331 19.674 28.1875C19.6399 28.1422 18.5485 28.1922 17.2434 28.3071L14.8807 28.5021L14.8464 29.1914C14.7505 30.8306 15.7835 34.8526 16.9844 37.4942C20.0129 44.1591 25.1734 48.4446 31.8255 49.8418C34.2035 50.3353 37.2028 50.4811 39.862 50.2197Z" fill="white"/>
<path d="M35.6487 31.96C35.7308 31.9279 36.6888 31.8344 37.7633 31.7694L39.6968 31.628L39.575 30.6201C38.8807 24.7097 36.5195 19.7624 32.7 16.2336C28.7452 12.5695 23.7236 10.8067 17.4681 10.8717C14.7707 10.9042 11.1215 11.3056 11.0118 11.583C10.9642 11.6756 11.1683 12.6668 11.4417 13.7945L11.951 15.8515L12.447 15.8274C12.7118 15.8227 13.9338 15.6939 15.1393 15.5654C20.0267 15.0197 24.4677 15.9816 27.7808 18.3257C31.3123 20.8189 33.9704 25.715 34.4774 30.6493C34.6242 32.0393 34.6246 32.0546 35.0544 32.0317C35.2861 32.0276 35.5501 31.9923 35.6487 31.96Z" fill="white"/>
</g>
</g>
<defs>
<clipPath id="clip0_1241_1458">
<rect width="61" height="70" fill="white"/>
</clipPath>
<clipPath id="clip1_1241_1458">
<rect width="70.3528" height="73.6572" fill="white" transform="matrix(-0.999843 0.0177232 -0.0222461 -0.999753 73.0696 75.5834)"/>
</clipPath>
</defs>
</svg>

<svg xmlns="http://www.w3.org/2000/svg" width="61" height="70" fill="none"><g clip-path="url(#a)"><path fill="#000" fill-opacity=".65" d="M30.52.199c-.905.3-1.75 1.108-2.518 2.421-1.688 2.9-3.776 5.8-6.586 9.139-1.765 2.093-2.763 3.174-6.678 7.169C9.303 24.496 7.92 26 5.818 28.71c-1.674 2.148-2.211 2.968-3.27 4.939-1.106 2.052-.37 4.268-.37 4.268-.544 3.889 15.25 25.278 1.09 13.611 1.09 4.375 1.107 6.432 5.65 10.481 7.585 6.759 18.486 9.481 28.88 7.197a32.711 32.711 0 0 0 8.336-3.051c6.909-3.667 11.99-9.741 13.971-16.65.768-2.723.967-4.378.875-7.32-.092-2.64-.338-4.227-1.028-6.635-2.856-9.96-5.59-18.515-14.202-26.314C41.958 5.816 32.792-.554 30.52.2Z"/><g fill="#fff" clip-path="url(#b)"><path d="M43.812 75.953c5.664-.606 11.046-1.956 14.897-3.739 2.195-1.018 5.052-2.813 4.897-3.07a475.53 475.53 0 0 0-2.562-3.567c-.034-.03-.851.428-1.815 1.027-4.867 2.948-10.51 4.471-18.51 4.98-10.034.638-18.825-.906-24.828-4.38-.805-.46-1.507-.785-1.572-.707-.258.28-2.403 3.593-2.4 3.716.004.183 3.223 1.993 4.61 2.611 3.744 1.633 9.118 2.838 14.789 3.289 2.603.198 9.984.114 12.494-.16Z"/><path d="M42.48 67.421c5.233-.598 9.922-1.875 14.23-3.925 6.323-2.99 11.34-7.41 14.984-13.228.463-.743.813-1.407.778-1.499-.07-.182-3.958-2.302-4.223-2.312-.1.002-.483.59-.865 1.316-1.843 3.43-5.306 6.996-9.288 9.592-5.71 3.698-12.356 5.56-20.398 5.703-5.61.1-9.877-.53-14.482-2.146-6.473-2.273-12.046-6.505-16.332-12.413-.376-.53-.75-.951-.832-.95-.166.003-3.482 1.99-3.839 2.303-.195.171-.09.4.678 1.457 2.22 3.083 5.726 6.617 8.703 8.753 5.601 4.017 11.794 6.34 19.463 7.322 2.026.255 9.193.28 11.422.027Z"/><path d="M42.336 58.762c10.409-1.639 18.965-7.652 23.486-16.486 2.331-4.587 3.095-9.681 2.406-16.097-.582-5.33-2.494-13.163-3.168-12.952-.115.032-1.12.25-2.257.499a54.145 54.145 0 0 0-2.24.499c-.132.033-.021.536.332 1.555.62 1.795 1.457 5.208 1.912 7.817.476 2.792.629 9.646.256 11.474-1.705 8.172-8.319 15.222-16.93 18.037-3.171 1.036-4.458 1.227-8.66 1.302-3.326.059-4.006.04-5.468-.24-2.51-.476-4.11-.953-6.5-1.997-2.925-1.264-4.94-2.56-7.558-4.901-3.732-3.316-6.296-6.974-7.47-10.627-.32-.973-.384-1.615-.448-3.772-.074-2.554-.059-2.631.423-4.017 1.448-4.112 3.944-5.778 7.83-5.235 1.494.203 2.98.804 3.808 1.555.929.84 1.83 2.66 2.685 5.37 1.035 3.348 1.367 4.169 2.245 5.684 1.429 2.454 3.715 4.05 6.675 4.656 1.78.367 5.22.275 7.097-.187 5.712-1.417 8.582-5.6 8.433-12.3-.087-3.917-.794-6.705-2.432-9.645-4.224-7.562-11.32-13.252-19.011-15.258-1.865-.487-3.826-.82-3.972-.68-.113.11-1.219 3.97-1.213 4.215 0 .061.5.175 1.115.271 3.006.452 6.762 1.9 9.299 3.554 3.813 2.504 7.546 6.616 9.69 10.71 1.191 2.244 1.854 6.732 1.401 9.433-.51 3.1-2.014 4.719-4.946 5.352-2.866.617-5.742.056-7.015-1.36-.747-.843-1.287-2.043-2.247-4.98-1.617-4.976-2.341-6.294-4.401-8.125-2.263-1.995-5.015-2.926-8.672-2.892-2.151.023-3.14.24-5.008 1.1-1.097.508-1.651.9-2.705 1.899-2.885 2.76-4.245 6.35-4.144 10.924.078 3.473.797 6.047 2.608 9.335 1.691 3.092 3.8 5.642 6.874 8.388 5.033 4.471 10.702 7.095 17.662 8.196 1.927.302 8.117.254 10.228-.074Z"/><path d="M39.862 50.22c10.67-1.031 17.476-7.595 18.896-18.195.252-2.025.104-5.741-.36-7.952-1.596-7.777-5.59-14.654-11.566-19.92l-1.553-1.365-.552.5c-.308.28-1.053 1.043-1.667 1.712l-1.116 1.183 1.402 1.26c5.32 4.743 8.626 10.5 10.11 17.636.87 4.178.328 8.81-1.478 12.468-2.312 4.724-6.014 7.193-12.053 8.05-4.77.666-9.56-.412-12.876-2.879-3.653-2.72-6.553-8.102-7.199-13.31-.063-.626-.158-1.175-.176-1.22-.034-.046-1.125.004-2.43.12l-2.363.194-.035.69c-.095 1.639.938 5.66 2.138 8.302 3.029 6.665 8.19 10.95 14.841 12.348 2.378.493 5.378.64 8.037.378Z"/><path d="M35.649 31.96c.082-.032 1.04-.126 2.114-.19l1.934-.142-.122-1.008c-.694-5.91-3.056-10.858-6.875-14.386-3.955-3.665-8.976-5.427-15.232-5.362-2.697.032-6.347.434-6.456.711-.048.093.156 1.084.43 2.211l.509 2.057.496-.024c.265-.004 1.487-.133 2.692-.262 4.888-.545 9.329.417 12.642 2.76 3.531 2.494 6.19 7.39 6.696 12.324.147 1.39.148 1.406.577 1.383.232-.004.496-.04.595-.072Z"/></g></g><defs><clipPath id="a"><path fill="#fff" d="M0 0h61v70H0z"/></clipPath><clipPath id="b"><path fill="#fff" d="M73.07 75.583 2.728 76.83 1.089 3.191l70.342-1.246z"/></clipPath></defs></svg>
